!!!!SEGMENT: Jan2001-Lauda_Jerusalem_Dominum.krn
!!!id: Jan2001
!!!AGN: Motet
!!!SCT: Lowinsky (1968)
!!!voices: 4
!!!COM: Maistre Jan
!!!OTL: Lauda Jerusalem Dominum
**kern	**kern	**kern	**kern
*part4	*part3	*part2	*part1
*staff4	*staff3	*staff2	*staff1
*I"Bassus	*I"Tenor	*I"Altus	*I"Superius
*I'B	*I'T	*I'A	*I'S
*clefF4	*clefGv2	*clefGv2	*clefG2
*k[]	*k[]	*k[]	*k[]
*C:	*C:	*C:	*C:
*M2/1	*M2/1	*M2/1	*M2/1
*met(C|)	*met(C|)	*met(C|)	*met(C|)
!!section: Prima pars: Lauda Jerusalem Dominum
!!!OMD: Prima pars: Lauda Jerusalem Dominum
=1	=1	=1	=1
0D	0A	0d	0a
=2	=2	=2	=2
1A	0c	1e	1a
1A	.	1e	1a
=3	=3	=3	=3
1A	0c	1e	1cc
1A	.	1e	1cc
=4	=4	=4	=4
[0G	1d	1.g	1b
.	1d	.	[1dd
.	.	4f	.
.	.	4e	.
=5	=5	=5	=5
0G_	0B	0d	2dd]
.	.	.	2g
.	.	.	2.g
.	.	.	4a
=6	=6	=6	=6
0G]	1r	1.g	0b
.	[1e	.	.
.	.	2e	.
=7	=7	=7	=7
1.A	2e]	1.e	1r
.	2A	.	.
.	[1A	.	[1a
2D	.	2d	.
=8	=8	=8	=8
[0D	1A]	[0f	2a]
.	.	.	2d
.	1r	.	1d
=9	=9	=9	=9
0D]	1.d	0f]	1r
.	.	.	[1dd
.	2c	.	.
=10	=10	=10	=10
0r	2B	0r	2dd]
.	2A	.	2cc
.	2G	.	2b
.	2F	.	2a
=11	=11	=11	=11
0r	2E	0r	2g
.	2D	.	2f
.	1A	.	1e
=12	=12	=12	=12
1.G	0B	1r	0d
.	.	[1g	.
2F	.	.	.
=13	=13	=13	=13
2E	0G	2g]	0r
2D	.	2f	.
2C	.	2e	.
2BB	.	2d	.
=14	=14	=14	=14
2AA	0r	2c	2r
2GG	.	2B	2dd
1D	.	1A	2.dd
.	.	.	4cc
=15	=15	=15	=15
0E	1.B	0G	2b
.	.	.	2a
.	.	.	2g
.	2G	.	2f
=16	=16	=16	=16
1C	1G	1c	1e
[1G	2.B	2.d	1d
.	4c	4c	.
=17	=17	=17	=17
2G]	2d	2B	1.g
2F	2D	2A	.
2E	2E	2G	.
2D	2F	[2A	2f
=18	=18	=18	=18
2C	2G	4A]	2e
.	.	4G	.
2BB	2D	2G	1d
1AA	1E	1A	.
.	.	.	2c#i
=19	=19	=19	=19
0GG	[0G	0B	0d
=20	=20	=20	=20
0C	0G]	0r	1r
.	.	.	[1g
=21	=21	=21	=21
0r	0r	1.c	2g]
.	.	.	2g
.	.	.	1g
.	.	2c	.
=22	=22	=22	=22
0r	1r	2c	1g
.	.	1c	.
.	2r	.	2a
.	[2G	2d	2b
=23	=23	=23	=23
1.C	2G]	1e	0g
.	2G	.	.
.	1G	[1c	.
2C	.	.	.
=24	=24	=24	=24
1C	1.G	1c]	0r
1C	.	1r	.
.	2A	.	.
=25	=25	=25	=25
2D	2B	1r	1r
2E	2G	.	.
1C	1c	2r	2r
.	.	2e	2g
=26	=26	=26	=26
0r	1r	2f	2a
.	.	2d	2b
.	1e	2.e	2.cc
.	.	4d	4b
=27	=27	=27	=27
2r	2e	2c	2a
2E	2e	2B	2g
2F	2c	2A	2a
2D	2d	2f	2a
=28	=28	=28	=28
2.E	2B	1e	2g
.	2c	.	2a
4F	.	.	.
2G	2B	2d	2b
2A	[2e	2c	[2cc
=29	=29	=29	=29
1.F	4e]	1A	4cc]
.	4d	.	4b
.	2.d	.	1a
.	.	2r	.
.	4c	.	.
2E	[2c	2e	2g
=30	=30	=30	=30
1D	4c]	4f	2a
.	4B	4e	.
.	2.B	4d	2f
.	.	4c	.
[1E	.	4B	[1e
.	4A	4c	.
.	[2A	4A	.
.	.	4c	.
=31	=31	=31	=31
1E]	4A]	1B	1e]
.	4G#i	.	.
.	2G#i	.	.
[1AA	1A	1A	1r
=32	=32	=32	=32
1AA]	1E	2r	1r
.	.	2A	.
1r	1r	2B	2r
.	.	2c	2e
=33	=33	=33	=33
0r	2r	2d	2f
.	2E	2e	2g
.	2F	2.A	[1a
.	2G	.	.
.	.	4B	.
=34	=34	=34	=34
0r	2A	2c	2a]
.	2B	2d	2g
.	2.A	1c	2.f
.	4G	.	4e
=35	=35	=35	=35
2r	2F	1A	2d
2AA	2E	.	2c
2BB	1D	1r	[1d
2C	.	.	.
=36	=36	=36	=36
1D	0r	2r	1d]
.	.	2A	.
2r	.	2B	1r
2AA	.	2c	.
=37	=37	=37	=37
2BB	0r	1.d	0r
2C	.	.	.
2D	.	.	.
2E	.	2c	.
=38	=38	=38	=38
2.D	0r	2.B	0r
4C	.	4A	.
2BB	.	2G	.
2AA	.	2F#i	.
=39	=39	=39	=39
0GG	0d	0G	[0b
=40	=40	=40	=40
0G	1d	1r	0b]
.	1d	1d	.
=41	=41	=41	=41
1G	0B	1d	1b
1G	.	1d	1b
=42	=42	=42	=42
1.F	2.c	0f	2a
.	.	.	1cc
.	8BL	.	.
.	8AJ	.	.
.	2c	.	.
2D	2d	.	4b
.	.	.	4a
=43	=43	=43	=43
0E	1B	2.e	1g
.	.	4d	.
.	[1e	2c	2r
.	.	2B	2g
=44	=44	=44	=44
2AA	2e]	1A	2.cc
2.A	1c	.	.
.	.	.	4b
.	.	1e	2a
4G	.	.	.
2E	2B	.	2g
=45	=45	=45	=45
2F	2A	1r	2.a
2G	2d	.	.
.	.	.	8gL
.	.	.	8fJ
2.A	2c	1e	1e
.	2A	.	.
8GL	.	.	.
8FJ	.	.	.
=46	=46	=46	=46
1E	1B	1e	2r
.	.	.	2g
2r	2r	1e	2.cc
2C	2E	.	.
.	.	.	4b
=47	=47	=47	=47
2.F	2D	2A	2a
.	2E	1c	2g
4E	.	.	.
2D	1F	.	2.a
2D	.	2B	.
.	.	.	8gL
.	.	.	8fJ
=48	=48	=48	=48
2.C	1G	0c	[0e
4BB	.	.	.
2AA	1A	.	.
[2A	.	.	.
=49	=49	=49	=49
2A]	1E	1B	0e]
2G#i	.	.	.
1A	1r	1c	.
=50	=50	=50	=50
1E	0r	2r	2r
.	.	2e	2g
1r	.	2f	2a
.	.	2d	2b
=51	=51	=51	=51
0r	0r	2e	2cc
.	.	2f	2a
.	.	1g	1b
=52	=52	=52	=52
2r	2r	1e	1g
2E	2G	.	.
2F	2A	2r	1r
2D	2B	2d	.
=53	=53	=53	=53
2E	2c	2g	1cc
2F	2A	2f	.
1G	1d	1d	2.b
.	.	.	4a
=54	=54	=54	=54
2.E	2.G	2e	4b
.	.	.	4g
.	.	1g	2cc
4F	4A	.	.
2G	4B	.	2b
.	4G	.	.
2A	2c	4f	[2a
.	.	4e	.
=55	=55	=55	=55
1E	2B	1e	2a]
.	2B	.	2g#i
[1AA	1A	[1e	[1a
=56	=56	=56	=56
0AA]	1r	1e]	1a]
.	1E	2r	1r
.	.	2A	.
=57	=57	=57	=57
2r	1E	1c	1e
2AA	.	.	.
2AA	1E	1c	1e
2AA	.	.	.
=58	=58	=58	=58
1E	1G	0B	1e
2r	2r	.	[1g
2E	2G	.	.
=59	=59	=59	=59
2E	2G	2r	1g]
2E	2G	2B	.
[1G	4E	2B	1g
.	4F	.	.
.	4G	2B	.
.	4A	.	.
=60	=60	=60	=60
2G]	2B	2d	2g
2C	2c	1e	4f
.	.	.	4e
1C	2c	.	2g
.	4B	4d	2a
.	4A	4c	.
=61	=61	=61	=61
2r	2G	2B	2b
2AA	2A	2A	1cc
2.C	1E	1A	.
.	.	.	4b
4D	.	.	4a
=62	=62	=62	=62
2E	1r	1c	2g
2F	.	.	2a
2G	2.E	1B	[1e
2A	.	.	.
.	4F	.	.
=63	=63	=63	=63
2B	2G	1E	1e]
1c	2A	.	.
.	2A	1r	1r
4B	4G	.	.
4A	4F	.	.
=64	=64	=64	=64
2G	2E	1r	0r
2A	2F	.	.
1E	[1C	2r	.
.	.	2c	.
=65	=65	=65	=65
0r	0C]	2.c	2r
.	.	.	2cc
.	.	8BL	.
.	.	8AJ	.
.	.	2G	2.cc
.	.	2A	.
.	.	.	8bL
.	.	.	8aJ
=66	=66	=66	=66
2r	2r	1E	2g
2A	2c	.	2a
2A	2c	1r	1e
2A	2c	.	.
=67	=67	=67	=67
2G	2B	2r	2r
1A	2c	2e	2a
.	1A	2c	2a
4G	.	2d	2a
4F	.	.	.
=68	=68	=68	=68
2E	1r	2e	2g
2D	.	2f	2a
2F	2r	1d	2.a
2G	2d	.	.
.	.	.	8gL
.	.	.	8fJ
=69	=69	=69	=69
1A	2c	2r	1e
.	2.A	1e	.
1AA	.	.	2r
.	4B	.	.
.	2c	[2c	2a
=70	=70	=70	=70
2r	2A	4c]	2.a
.	.	4d	.
2AA	1c	1e	.
.	.	.	8gL
.	.	.	8fJ
2C	.	.	2e
2D	4B	4d	2a
.	4A	4c	.
=71	=71	=71	=71
2E	2G	2B	2g
2C	2c	2e	2e
1D	2A	1d	1f
.	[2B	.	.
=72	=72	=72	=72
1E	4B]	2B	[0e
.	4G	.	.
.	2.c	2G	.
2.C	.	1c	.
.	4B	.	.
.	[2A	.	.
4D	.	.	.
=73	=73	=73	=73
1E	2A]	1B	0e]
.	2G#i	.	.
[1AA	[1A	1c	.
=74	=74	=74	=74
1AA]	1A]	2B	1r
.	.	1c	.
1r	1r	.	1g
.	.	4B	.
.	.	4A	.
=75	=75	=75	=75
1r	1B	0G	1g
1E	1c	.	1g
=76	=76	=76	=76
1F	1A	2r	0a
.	.	2c	.
1D	1d	1f	.
=77	=77	=77	=77
1E	2B	1e	1r
.	2c	.	.
1F	2c	1A	2r
.	2d	.	2a
=78	=78	=78	=78
2E	2e	2r	2g
1F	2c	1A	2a
.	1d	.	2a
4E	.	2B	4g
4D	.	.	4f
=79	=79	=79	=79
2C	2G	4c	[0e
.	.	4d	.
2A	2c	4e	.
.	.	4f	.
2G	2B	2g	.
[2A	[2c	2e	.
=80	=80	=80	=80
2A]	2c]	1A	0e]
4G	4B	.	.
4F	4A	.	.
1E	[1G	[1B	.
=81	=81	=81	=81
2r	2G]	2B]	1r
2E	4F	2c	.
.	4E	.	.
2D	2F	2d	[1b
[2E	[2G	2B	.
=82	=82	=82	=82
2E]	4G]	1e	2b]
.	4E	.	.
4D	1A	.	2b
4C	.	.	.
1BB	.	2d	1b
.	2G#i	[2d	.
=83	=83	=83	=83
2AA	1A	2d]	2r
2A	.	2c	2cc
2G	1r	2d	2b
[2A	.	2A	[2cc
=84	=84	=84	=84
2A]	1A	2c	2cc]
4G	.	2d	4b
4F	.	.	4a
1E	2.B	1e	1g
.	4c	.	.
=85	=85	=85	=85
1D	2d	1f	2r
.	2D	.	2a
1r	2E	2e	2g
.	2F	2c	[2a
=86	=86	=86	=86
2r	1D	1d	2a]
2A	.	.	4g
.	.	.	4f
2G	1r	2B	1e
[2A	.	[2c	.
=87	=87	=87	=87
2A]	1A	2c]	2r
4G	.	2d	2a
4F	.	.	.
2E	2B	2e	2g
2F	2A	2c	[2a
=88	=88	=88	=88
1D	1d	1f	2a]
.	.	.	4g
.	.	.	4f
2r	2r	1r	[1e
2A	2c	.	.
=89	=89	=89	=89
2G	2B	0r	0e_
1A	1c	.	.
4G	4B	.	.
4F	4A	.	.
=90	=90	=90	=90
1.E	1G	2r	0e_
.	.	2c	.
.	1r	2B	.
2AA	.	[2c	.
=91	=91	=91	=91
2.AA	0r	2c]	0e_
.	.	4B	.
4BB	.	4A	.
2C	.	2G	.
2AA	.	2A	.
=92	=92	=92	=92
2.C	2r	2E	0e_
.	2c	2A	.
4D	.	.	.
[1E	2B	1G	.
.	[2c	.	.
=93	=93	=93	=93
0E_	2c]	1c	0e_
.	4B	.	.
.	4A	.	.
.	[1G	[1B	.
=	=	=	=
00E]	00G]	00B]	00e]
=||	=||	=||	=||
*M2/1	*M2/1	*M2/1	*M2/1
*met(C|)	*met(C|)	*met(C|)	*met(C|)
!!section: Secunda pars: Mittit cristallum
!!!OMD: Secunda pars: Mittit cristallum
0r	0r	0r	0a
=94	=94	=94	=94
0r	1r	0r	1g
.	[1A	.	1a
=95	=95	=95	=95
0r	1A]	0r	1cc
.	1G	.	1b
=96	=96	=96	=96
0r	1A	0e	1.a
.	1c	.	.
.	.	.	2g
=97	=97	=97	=97
1r	1B	[0d	1g
[1D	[1A	.	2.a
.	.	.	8bL
.	.	.	8ccJ
=98	=98	=98	=98
1D]	2A]	1d]	1dd
.	2B	.	.
[1C	2c	1e	1g
.	2d	.	.
=99	=99	=99	=99
1C]	1e	1g	2r
.	.	.	2e
1D	[1d	[1f	[1a
=100	=100	=100	=100
0F	1d]	2f]	2a]
.	.	4e	4g
.	.	4d	4f
.	2r	2c	1a
.	2A	2d	.
=101	=101	=101	=101
1E	2B	1e	1g
.	2c	.	.
[1D	[1d	[1A	1f
=102	=102	=102	=102
2D]	1d]	0A_	1d
4C	.	.	.
4BB	.	.	.
[1AA	[1c	.	[1e
=103	=103	=103	=103
1AA]	1c]	1A]	0e_
2r	2r	1r	.
2E	2G	.	.
=104	=104	=104	=104
2E	2G	0r	1e]
2C	2G	.	.
1F	1A	.	1r
=105	=105	=105	=105
0E	0G	2r	2r
.	.	2e	2g
.	.	2e	2g
.	.	2c	2g
=106	=106	=106	=106
1r	1r	1f	1a
2r	2r	[1e	[1g
[2E	[2G	.	.
=107	=107	=107	=107
2E]	2G]	1e]	1g]
2E	2G	.	.
2E	2E	1r	1r
2D	2F	.	.
=108	=108	=108	=108
2E	2G	0r	0r
2F	2A	.	.
2G	2B	.	.
2E	2c	.	.
=109	=109	=109	=109
1F	1A	1r	1r
[1E	[1G	2r	2r
.	.	[2e	[2g
=110	=110	=110	=110
1E]	1G]	2e]	2g]
.	.	2e	2g
1r	1r	2e	2e
.	.	2d	2f
=111	=111	=111	=111
0r	0r	2e	2g
.	.	2f	2a
.	.	2g	2b
.	.	2e	2cc
=112	=112	=112	=112
1D	1d	1f	1a
2E	2.B	2e	2.g
[2G	.	2d	.
.	4c	.	4a
=113	=113	=113	=113
2G]	2d	1.g	2b
4F	2e	.	2cc
4E	.	.	.
2G	[1d	.	2b
2A	.	4f	[2a
.	.	4e	.
=114	=114	=114	=114
1B	2d]	1d	2a]
.	2G	.	2g
2A	2A	2c	2f
[2G	2B	[2B	[2e
=115	=115	=115	=115
2G]	2E	2B]	4e]
.	.	.	4d
2F	1A	2A	2d
1E	.	1B	[1e
.	2G#i	.	.
=116	=116	=116	=116
0AA	0A	0c	1e]
.	.	.	1r
=	=	=	=
*M3/1	*M3/1	*M3/1	*M3/1
*met(C|3)	*met(C|3)	*met(C|3)	*met(C|3)
1A	1A	1c	0e
1A	1A	1c	.
1A	1A	1c	1e
=117	=117	=117	=117
1.E	1B	0e	0g
.	1c	.	.
2F	.	.	.
1G	1B	1d	1g
=118	=118	=118	=118
1C	0G	0c	1e
0D	.	.	0f
.	1F	1B	.
=119	=119	=119	=119
0C	0G	0c	0e
1r	1r	1r	1r
=120	=120	=120	=120
1A	1c	1c	1e
1A	1A	1c	1e
1A	1A	1c	1e
=121	=121	=121	=121
1.E	1B	1.e	0g
.	1c	.	.
2F	.	2e	.
1G	1B	1d	1g
=122	=122	=122	=122
1C	0G	0c	1e
0D	.	.	0f
.	1F	1B	.
=123	=123	=123	=123
0C	0G	0c	0e
1r	1r	1r	1r
=124	=124	=124	=124
0C	0e	0g	0cc
1C	1e	1g	1cc
=125	=125	=125	=125
0C	1e	0g	0cc
.	1e	.	.
1G	1d	1g	1b
=126	=126	=126	=126
1A	1c	1f	1cc
0B	0G	0d	0dd
=127	=127	=127	=127
1c	1r	0e	0g
0G	0B	.	.
.	.	1d	[1dd
=128	=128	=128	=128
0F	0A	0f	1dd]
.	.	.	1cc
[1G	[1d	1d	[1b
=129	=129	=129	=129
1G]	1d]	1g	2b]
.	.	.	2a
0A	0c	1e	1.cc
.	.	1c	.
.	.	.	2b
=130	=130	=130	=130
1D	1d	1f	0a
0E	0B	0e	.
.	.	.	1g#i
=	=	=	=
*M2/1	*M2/1	*M2/1	*M2/1
*met(C|)	*met(C|)	*met(C|)	*met(C|)
0AA	0A	[0c	[0a
=131	=131	=131	=131
1r	0r	0c]	0a]
[1F	.	.	.
=132	=132	=132	=132
2F]	1.c	0r	0r
2F	.	.	.
2F	.	.	.
2F	2c	.	.
=133	=133	=133	=133
1E	2c	0r	0r
.	2c	.	.
1G	1B	.	.
=134	=134	=134	=134
2F	1d	0r	0r
2D	.	.	.
2E	2c	.	.
2F	2A	.	.
=135	=135	=135	=135
2D	2B	0r	0r
2C	2.c	.	.
2.F	.	.	.
.	4B	.	.
.	4A	.	.
4E	4G	.	.
=136	=136	=136	=136
1D	1A	1r	0r
[1F	1D	[1f	.
=137	=137	=137	=137
1F]	0r	2f]	1.cc
.	.	2f	.
1r	.	2f	.
.	.	2f	2cc
=138	=138	=138	=138
0r	0r	1e	2cc
.	.	.	2cc
.	.	1g	1b
=139	=139	=139	=139
0r	0r	2f	1dd
.	.	2d	.
.	.	2e	2cc
.	.	2f	2a
=140	=140	=140	=140
0r	0r	2d	2b
.	.	2c	2.cc
.	.	2.f	.
.	.	.	4b
.	.	.	4a
.	.	4e	4g
=141	=141	=141	=141
1r	0r	1d	2a
.	.	.	2b
1A	.	2c	1e
.	.	2c	.
=142	=142	=142	=142
2A	1e	2c	0r
2A	.	2c	.
1A	2e	1c	.
.	2e	.	.
=143	=143	=143	=143
2r	1e	2r	0r
1A	.	1c	.
.	2r	.	.
2A	[2e	2c	.
=144	=144	=144	=144
2A	2e]	2c	0r
2A	2e	2c	.
1G	2e	1B	.
.	2e	.	.
=145	=145	=145	=145
1F	1d	1A	0r
2.E	1c	2G	.
.	.	2g	.
4F	.	.	.
=146	=146	=146	=146
2G	2B	2e	2r
2.A	2.c	2.f	1a
4G	4B	4e	.
4F	[2B	[2e	2a
4E	.	.	.
=147	=147	=147	=147
1F	2B]	2e]	2a
.	2A	2d	2a
1E	2B	1e	1g
.	2G	.	.
=148	=148	=148	=148
0r	2.A	0c	1f
.	4B	.	.
.	4c	.	2.e
.	4d	.	.
.	[2e	.	.
.	.	.	4f
=149	=149	=149	=149
1r	2e]	1r	4g
.	.	.	4a
.	4d	.	2.b
.	4c	.	.
2r	4B	2r	.
.	4A	.	4cc
[2A	[2f	[2c	[2a
=150	=150	=150	=150
2A]	2f]	4c]	2a]
.	.	4B	.
2E	2e	2.B	2g
1F	4d	.	2a
.	4c	4A	.
.	4B	[2A	2d
.	4A	.	.
=151	=151	=151	=151
1E	1B	2A]	1e
.	.	2G#i	.
1AA	1A	1A	1r
=152	=152	=152	=152
0r	0r	1r	1g
.	.	1c	2g
.	.	.	2g
=153	=153	=153	=153
0r	0r	2c	1a
.	.	2c	.
.	.	1d	1b
=154	=154	=154	=154
0r	0r	1e	1cc
.	.	1f	[1cc
=155	=155	=155	=155
0r	0r	1.f	2cc]
.	.	.	2b
.	.	.	2a
.	.	2e	2g
=156	=156	=156	=156
0r	0r	2d	2a
.	.	2c	2e
.	.	1d	1f
=157	=157	=157	=157
1r	1c	[0A	1e
1F	2c	.	1r
.	2c	.	.
=158	=158	=158	=158
2F	1d	1A]	0r
2F	.	.	.
1G	1e	1r	.
=159	=159	=159	=159
1A	1f	1r	0r
1B-i	[1f	1d	.
=160	=160	=160	=160
1.B-i	2f]	2f	0r
.	2e	1g	.
.	2d	.	.
2A	2c	2f	.
=161	=161	=161	=161
2G	2B	2e	0r
2F	1c	2f	.
1G	.	1d	.
.	2B	.	.
=162	=162	=162	=162
[0C	1c	1r	1cc
.	[1G	1c	2cc
.	.	.	[2cc
=163	=163	=163	=163
0C]	0G]	2c	2cc]
.	.	1c	2cc
.	.	.	2cc
.	.	2c	2cc
=164	=164	=164	=164
0r	0r	2c	0g
.	.	2c	.
.	.	1e	.
=165	=165	=165	=165
0r	0r	1e	2r
.	.	.	2cc
.	.	2e	2cc
.	.	2c	2cc
=166	=166	=166	=166
0r	0r	2.f	2a
.	.	.	2cc
.	.	4e	.
.	.	2d	2b
.	.	2c	[2a
=167	=167	=167	=167
1r	0r	1B	2a]
.	.	.	2g#i
1F	.	2A	[1a
.	.	[2f	.
=168	=168	=168	=168
2F	1c	2f]	0a_
1F	.	2f	.
.	2c	2f	.
2F	[2c	2f	.
=169	=169	=169	=169
2F	2c]	2f	1a]
2F	2c	2f	.
1C	2c	1e	1r
.	2c	.	.
=170	=170	=170	=170
2r	2G	2r	0r
2C	2G	2c	.
2C	2G	2c	.
2C	2G	2c	.
=171	=171	=171	=171
2.F	2.A	2.d	0r
4E	4G	4c	.
2D	2F	2B	.
2C	[2E	[2A	.
=172	=172	=172	=172
1BB	2E]	2A]	1r
.	2D	2G#i	.
2AA	2E	1A	2r
2A	2e	.	2cc
=173	=173	=173	=173
2A	2e	0r	2cc
2A	2c	.	2cc
2A	2.f	.	2a
2F	.	.	2cc
.	4e	.	.
=174	=174	=174	=174
2G	2d	0r	2b
2A	2c	.	1a
1E	1B	.	.
.	.	.	2g#i
=175	=175	=175	=175
2r	2A	2r	0a
2AA	2c	2A	.
2AA	2c	2A	.
2AA	2c	2A	.
=176	=176	=176	=176
2AA	2A	2.c	[0el
2AA	2c	.	.
.	.	4B	.
1E	2B	2G	.
.	[2A	2A	.
=177	=177	=177	=177
1E	2A]	1B	0e_
.	2G#i	.	.
[1AA	1A	1c	.
=178	=178	=178	=178
2AA]	1c	2c	0e_
2BB	.	2B	.
2C	1c	1A	.
2D	.	.	.
=179	=179	=179	=179
00El	00Bl	00Gl	00e]
==	==	==	==
*-	*-	*-	*-
!!!system-decoration: [*]
!!!RDF**kern: i = editorial accidental
!!!RDF**kern: l = terminal long
!!!ENC: Benjamin Ory
!!!END: 2022/2/10
!!!EED: Benjamin Ory
!!!EEV: 2022/02/10
!!!YEC: Copyright 2022 Benjamin Ory, All Rights Reserved
!!!ONB: Translated from MusicXML on 2022/02/10
